wp-content/uploads/2025/04/01.Reactions.svg

<svg width="72" height="72" viewBox="0 0 72 72" fill="none" xmlns="http://www.w3.org/2000/svg">
<g clip-path="url(#clip0_5308_5854)">
<rect width="72" height="72" rx="36" fill="#2965FF"/>
<mask id="mask0_5308_5854" style="mask-type:luminance" maskUnits="userSpaceOnUse" x="0" y="0" width="72" height="72">
<path d="M72 0L0 0L0 72H72V0Z" fill="white"/>
</mask>
<g mask="url(#mask0_5308_5854)">
<path d="M20.8258 25.1495C22.9517 23.3927 26.6339 19.3254 23.9705 13.6616C23.6256 12.9316 22.5666 12.8273 22.0612 13.4691C20.4648 15.4907 17.8335 19.7345 19.0128 24.604C19.1973 25.3661 20.2001 25.671 20.8258 25.1495Z" fill="white"/>
<path d="M53.5172 21.2352C54.1109 17.9621 52.5385 15.1062 51.3673 13.5098C50.8618 12.8198 49.7307 12.9402 49.4178 13.7183C47.8776 17.5289 50.0676 20.3528 51.6561 21.7888C52.2978 22.3664 53.3728 22.0535 53.5252 21.2352H53.5172Z" fill="white"/>
<path d="M52.2093 55.3375C55.8273 51.7836 58.0575 46.9943 58.0575 41.7237C58.0575 36.7418 56.2686 31.6477 54.6481 28.0537C54.0303 26.6819 51.8964 26.8423 51.5033 28.2783C51.1503 29.5699 50.7733 30.3401 50.7733 30.3401C46.6097 16.63 37.5445 12.0492 32.4023 10.533C30.8379 10.0677 29.2816 11.2871 29.5142 12.7953C29.6667 13.7821 29.7389 14.9934 29.6185 16.3652C29.5784 16.8385 29.5062 17.3359 29.41 17.8494C29.3779 18.0178 29.3297 18.1943 29.2976 18.3708C29.2094 18.7639 29.1051 19.165 28.9848 19.5741C28.9206 19.7827 28.8564 19.9913 28.7842 20.1999C28.6398 20.617 28.4713 21.0502 28.2868 21.4835C28.1986 21.684 28.1264 21.8765 28.0301 22.0851C27.7333 22.7189 27.4044 23.3687 27.0033 24.0345C25.479 26.5696 24.4682 28.7436 23.8024 30.5326C22.3263 34.4715 22.5028 36.5493 22.5028 36.5493C22.5028 36.5493 21.139 34.9128 20.3207 32.2654C20.1522 31.7199 19.7351 31.3749 19.2618 31.2305C19.1013 31.1824 18.9328 31.1583 18.7644 31.1503C18.5959 31.1503 18.4274 31.1663 18.267 31.2065C17.7776 31.3348 17.3525 31.6637 17.1519 32.1932C16.9112 32.851 16.6786 33.557 16.462 34.3031C15.8202 36.5252 15.3389 39.0683 15.3389 41.7237C15.3389 52.6901 24.9094 61.5788 36.7102 61.5788C37.4643 61.5788 38.2024 61.5387 38.9404 61.4665C39.1811 61.4424 39.4137 61.3943 39.6544 61.3622C40.1438 61.298 40.6251 61.2419 41.1064 61.1456C41.3872 61.0895 41.652 61.0173 41.9247 60.9531C42.3499 60.8568 42.7751 60.7605 43.1842 60.6402C43.465 60.56 43.7378 60.4557 44.0105 60.3594C44.4036 60.2231 44.7967 60.1027 45.1818 59.9423C45.4545 59.83 45.7193 59.7016 45.992 59.5813C46.361 59.4128 46.7301 59.2524 47.083 59.0759C47.3478 58.9395 47.5965 58.7871 47.8532 58.6427C48.1981 58.4501 48.5351 58.2576 48.864 58.041C49.1127 57.8806 49.3453 57.7041 49.586 57.5356C49.8989 57.311 50.2198 57.0944 50.5246 56.8537C50.7573 56.6692 50.9738 56.4767 51.1985 56.2841C51.4873 56.0354 51.7761 55.7867 52.0488 55.522C52.113 55.4578 52.1932 55.4017 52.2574 55.3375C52.2494 55.3375 52.2414 55.3375 52.2333 55.3375H52.2093Z" fill="white"/>
</g>
</g>
<defs>
<clipPath id="clip0_5308_5854">
<rect width="72" height="72" rx="36" fill="white"/>
</clipPath>
</defs>
</svg>

<svg xmlns="http://www.w3.org/2000/svg" width="72" height="72" fill="none"><g clip-path="url(#a)"><rect width="72" height="72" fill="#2965FF" rx="36"/><mask id="b" width="72" height="72" x="0" y="0" maskUnits="userSpaceOnUse" style="mask-type:luminance"><path fill="#fff" d="M72 0H0v72h72z"/></mask><g fill="#fff" mask="url(#b)"><path d="M20.826 25.15c2.126-1.757 5.808-5.825 3.145-11.488-.345-.73-1.404-.835-1.91-.193-1.596 2.022-4.227 6.266-3.048 11.135.184.762 1.187 1.067 1.813.546M53.517 21.235c.594-3.273-.979-6.129-2.15-7.725-.505-.69-1.636-.57-1.95.208-1.54 3.81.65 6.635 2.24 8.07.64.578 1.716.265 1.868-.553z"/><path d="M52.21 55.338c3.617-3.554 5.847-8.344 5.847-13.614 0-4.982-1.788-10.076-3.409-13.67-.618-1.372-2.752-1.212-3.145.224-.353 1.292-.73 2.062-.73 2.062-4.163-13.71-13.229-18.29-18.37-19.807-1.565-.465-3.121.754-2.889 2.262a14.9 14.9 0 0 1-.104 5.054c-.032.169-.08.345-.112.522q-.133.59-.313 1.203-.095.313-.2.626c-.145.417-.314.85-.498 1.284-.088.2-.16.392-.257.601a21 21 0 0 1-1.027 1.95c-1.524 2.535-2.535 4.709-3.2 6.498-1.477 3.938-1.3 6.016-1.3 6.016s-1.364-1.636-2.182-4.284a1.55 1.55 0 0 0-1.06-1.035 2 2 0 0 0-.497-.08c-.168 0-.337.016-.497.056-.49.129-.915.458-1.115.987a33 33 0 0 0-.69 2.11c-.642 2.222-1.123 4.765-1.123 7.42 0 10.967 9.57 19.856 21.371 19.856.754 0 1.492-.04 2.23-.112.241-.025.474-.073.714-.105.49-.064.971-.12 1.452-.216.281-.056.546-.129.819-.193.425-.096.85-.193 1.26-.313.28-.08.553-.184.825-.28.394-.137.787-.257 1.172-.418.273-.112.537-.24.81-.36.369-.17.738-.33 1.091-.506.265-.136.514-.289.77-.433.345-.193.682-.385 1.011-.602.249-.16.481-.337.722-.505.313-.225.634-.442.939-.682.232-.185.449-.377.674-.57.288-.249.577-.497.85-.762.064-.064.144-.12.208-.184h-.048"/></g></g><defs><clipPath id="a"><rect width="72" height="72" fill="#fff" rx="36"/></clipPath></defs></svg>
